!!!!SEGMENT: Gsc3007-Mon_povre_cueur_hellas.krn
!!!id: Gsc2016
!!!AGN: Chanson
!!!voices: 4
!!!COM: Mathieu Gascongne
!!!OTL: Mon povre cueur, héllas
**kern	**kern	**kern	**kern
*part4	*part3	*part2	*part1
*staff4	*staff3	*staff2	*staff1
*I"Bassus	*I"Tenor	*I"Altus	*I"Superius
*I'B	*I'T	*I'A	*I'S
*clefF4	*clefGv2	*clefG2	*clefG2
*k[]	*k[]	*k[]	*k[]
*C:	*C:	*C:	*C:
*M2/1	*M2/1	*M2/1	*M2/1
*met(C|)	*met(C|)	*met(C|)	*met(C|)
2r	0r	0r	0ryy
2G	.	.	.
2A	.	.	.
2c	.	.	.
=1	=1	=1	=1
2c	2r	0r	0r
2B	2G	.	.
4c	2A	.	.
4d	.	.	.
4e	2c	.	.
4c	.	.	.
=2	=2	=2	=2
1d	2c	2r	0r
.	2B	2G	.
1r	4c	2A	.
.	4d	.	.
.	4e	2c	.
.	4c	.	.
=3	=3	=3	=3
1G	2d	2c	0r
.	2G	2B	.
2F	2A	4c	.
.	.	4d	.
2E	2c	4e	.
.	.	4c	.
=4	=4	=4	=4
2D	2c	2d	0r
2D	2B	2d	.
2C	1c	2e	.
2c	.	2g	.
=5	=5	=5	=5
2B	1r	2g	1r
2A	.	2f	.
1G	1g	2g	2r
.	.	4f	2g
.	.	4e	.
=6	=6	=6	=6
1r	2f	2d	2a
.	2e	2c	2cc
1G	2d	1g	2cc
.	4c	.	2b
.	4B	.	.
=7	=7	=7	=7
2F	2A	2r	4cc
.	.	.	4dd
2E	2G	2g	4ee
.	.	.	4cc
2D	2A	2f	2dd
2C	2e	2e	2g
=8	=8	=8	=8
2F	2.f	2d	2a
2A	.	2c	2cc
.	4f	.	.
1G	2e	[1g	2cc
.	2d	.	2b
=9	=9	=9	=9
2r	1c	1g]	2cc
2E	.	.	2g
2F	2r	1r	2.a
2F	2c	.	.
.	.	.	4g
=10	=10	=10	=10
2D	2d	0r	2f
2.F	2d	.	4e
.	.	.	4d
.	2A	.	2c
4E	.	.	.
4D	[2d	.	2f
4C	.	.	.
=11	=11	=11	=11
2G	2d]	0r	2g
4F	1c	.	1a
4E	.	.	.
1D	.	.	.
.	2B	.	4g
.	.	.	4f
=12	=12	=12	=12
1C	2c	2r	1e
.	2G	2e	.
1r	2A	2f	2r
.	2A	2f	2cc
=13	=13	=13	=13
0r	2B	2d	2dd
.	2.d	2.f	2dd
.	.	.	2a
.	4c	4e	.
.	4B	4d	[2dd
.	4A	4c	.
=14	=14	=14	=14
0r	2B	2g	2dd]
.	2c	4f	1cc
.	.	4e	.
.	1G	1d	.
.	.	.	2b
=15	=15	=15	=15
1r	2r	1c	1cc
.	2c	.	.
2r	2d	2r	1r
2C	[2e	2g	.
=16	=16	=16	=16
2E	4e]	2g	0r
.	4d	.	.
2E	1c	2g	.
2D	.	2f	.
2D	2B	2f	.
=17	=17	=17	=17
1C	1c	2e	1r
.	.	2e	.
1r	2r	2f	2r
.	2F	[2a	2cc
=18	=18	=18	=18
0r	2A	4a]	2cc
.	.	4g	.
.	2A	1f	2cc
.	2G	.	2b
.	2G	2e	2b
=19	=19	=19	=19
1r	1F	2f	2a
.	.	4e	1cc
.	.	4d	.
2r	1r	1e	.
2c	.	.	4b
.	.	.	4a
=20	=20	=20	=20
2c	0r	2r	1g
2c	.	2g	.
2B	.	2g	1r
2B	.	2g	.
=21	=21	=21	=21
0A	2r	2f	1r
.	2c	2f	.
.	[1c	1e	2r
.	.	.	2a
=22	=22	=22	=22
2r	2c]	0r	2cc
2B	2d	.	2b
2.c	2.e	.	2g
.	.	.	[2a
4B	4d	.	.
=23	=23	=23	=23
2G	2e	0r	2a]
2B	2d	.	1g
1A	2c	.	.
.	4B	.	2f#i
.	4A	.	.
=24	=24	=24	=24
0G	2B	2r	1g
.	2c	2e	.
.	2c	2e	2r
.	2B	2d	2b
=25	=25	=25	=25
2r	2A	2.c	2.cc
2F	1c	.	.
.	.	4d	4b
2E	.	2e	2g
2F	4B	2c	[2a
.	4A	.	.
=26	=26	=26	=26
2G	2B	1e	2a]
2C	2c	.	1g
1D	1A	1d	.
.	.	.	2f#i
=27	=27	=27	=27
1C	2r	2r	1g
.	2c	2e	.
1G	2c	2e	1r
.	2B	2d	.
=28	=28	=28	=28
2r	2A	2.c	2.cc
2F	1c	.	.
.	.	4d	4b
2E	.	2e	2g
2F	4B	2c	[2a
.	4A	.	.
=29	=29	=29	=29
2G	2B	1e	4a]
.	.	.	4g
2C	2c	.	1g
1D	1A	[1d	.
.	.	.	2f#i
=30	=30	=30	=30
1G	0G	1d]	0g
2r	.	2r	.
2G	.	2d	.
=31	=31	=31	=31
2.c	0r	2e	0r
.	.	2g	.
4B	.	.	.
2c	.	2g	.
2A	.	2f	.
=32	=32	=32	=32
2G	0r	2.g	0r
2.c	.	.	.
.	.	4f	.
.	.	4e	.
4B	.	4d	.
4A	.	4f	.
4G	.	4e	.
=33	=33	=33	=33
2F	0r	4d	0r
.	.	4c	.
2E	.	1c	.
1D	.	.	.
.	.	2B	.
=34	=34	=34	=34
2C	2r	1c	0r
2C	2G	.	.
2.F	2A	2r	.
.	2c	2c	.
4E	.	.	.
=35	=35	=35	=35
2F	2c	2d	1r
2D	2B	2f	.
1C	2c	2f	2r
.	2c	2e	2g
=36	=36	=36	=36
1r	2.f	2d	2a
.	.	1a	2cc
.	4e	.	.
2r	2f	.	2cc
2G	2d	4g	2b
.	.	4f	.
=37	=37	=37	=37
2.A	1c	2e	1cc
.	.	2e	.
4G	.	.	.
2F	2r	2f	2r
2E	2e	2g	2cc
=38	=38	=38	=38
1D	2.f	2.a	2dd
.	.	.	2dd
.	4e	4g	.
1D	2d	4f	2a
.	.	4e	.
.	2f	[2d	[2dd
=39	=39	=39	=39
1r	1e	2d]	2dd]
.	.	2g	1cc
2r	1d	2a	.
2G	.	4g	2b
.	.	4f	.
=40	=40	=40	=40
2.A	1r	2e	1cc
.	.	2e	.
4G	.	.	.
2F	2r	2f	2r
2E	2e	2g	2cc
=41	=41	=41	=41
1D	2.f	2.a	2dd
.	.	.	2dd
.	4e	4g	.
1D	2d	4f	2a
.	.	4e	.
.	[2f	[2d	[2dd
=42	=42	=42	=42
2r	2f]	2d]	2dd]
2E	2e	2g	1cc
2F	1d	2a	.
2G	.	4g	2b
.	.	4f	.
=43	=43	=43	=43
2A	0c	2e	1cc
1F	.	2.a	.
.	.	.	2r
.	.	4g	.
4E	.	[2f	2cc
4D	.	.	.
=44	=44	=44	=44
1C	0r	2f]	2cc
.	.	2e	2cc
2r	.	1d	2b
2G	.	.	2b
=45	=45	=45	=45
2F	1r	2r	2.a
2.D	.	2f	.
.	.	.	4g
.	2r	2f	4f
4E	.	.	4e
4F	2A	2f	[2d
4G	.	.	.
=46	=46	=46	=46
2A	2A	2e	2d]
2A	2c	2e	2c
[1D	2B	2d	2.d
.	2B	2f	.
.	.	.	4e
=47	=47	=47	=47
1D]	0A	2f	4f
.	.	.	4d
.	.	2f	1dd
1r	.	2e	.
.	.	2e	2cc#i
=48	=48	=48	=48
2r	1r	2d	2dd
2D	.	2f	4d
.	.	.	4e
4D	2r	2f	4f
4E	.	.	4g
4F	2c	2f	4a
4G	.	.	4b
=49	=49	=49	=49
2A	2c	2e	2cc
2F	2c	2f	1a
2G	2B	2d	.
2G	2B	2d	2g
=50	=50	=50	=50
2D	0A	2.f	0a
2D	.	.	.
.	.	4e	.
2.F	.	2c	.
.	.	[2d	.
4E	.	.	.
=51	=51	=51	=51
2C	1r	2d]	0r
2E	.	1c	.
1D	2r	.	.
.	2d	2B	.
=52	=52	=52	=52
1C	1.e	2.c	1r
.	.	4B	.
2r	.	1G	2r
2G	2d	.	2b
=53	=53	=53	=53
2A	2f	2r	2.cc
2c	2.e	2A	.
.	.	.	4b
4c	.	2e	2g
4B	4d	.	.
4A	4c	2e	[2a
4G	4B	.	.
=54	=54	=54	=54
2F	2c	2f	4a]
.	.	.	4g
2G	2B	2e	1g
1D	1A	1d	.
.	.	.	2f#i
=55	=55	=55	=55
3%4G	3%4G	3%4d	3%4g
3%2G	3%2d	3%2g	3%2b
=56	=56	=56	=56
3%4C	3%4e	3%4g	3%4cc
3%2G	3%2d	3%2g	3%2b
=57	=57	=57	=57
3%2G	3%2B	3%2e	3%2g
3%2.F	3%2.c	3%2.f	3%2.a
3G	3B	3e	3g
=58	=58	=58	=58
3%2E	3%2G	3%2c	3%4g
3%4D	3%4A	3%4d	.
.	.	.	3%2f#i
=59	=59	=59	=59
1G	1G	1d	1g
2r	2r	2r	2r
2G	2d	2g	2b
=60	=60	=60	=60
2C	2.e	2g	2.cc
2G	.	2g	.
.	4d	.	4b
2G	2B	2e	2g
[2F	[2c	[2f	[2a
=61	=61	=61	=61
4F]	4c]	4f]	4a]
4G	4B	4e	4g
2E	4A	2c	1g
.	4G	.	.
1D	1A	1d	.
.	.	.	2f#i
=62	=62	=62	=62
00Gl	00Gl	00dl	00gl
==	==	==	==
*-	*-	*-	*-
!!!system-decoration: [*]
!!!RDF**kern: i = editorial accidental
!!!RDF**kern: l = terminal long
!!!ENC: Benjamin Ory
!!!END: 2024/4/18
!!!EED: Benjamin Ory
!!!EEV: 2024/04/18
!!!YEC: Copyright 2024 Benjamin Ory, All Rights Reserved
!!!ONB: Translated from MusicXML on 2024/04/18